tools/download-figma-icons/icons/solid/piggy-coin.svg

<svg width="25" height="24" viewBox="0 0 25 24" fill="none" xmlns="http://www.w3.org/2000/svg">
<path fill-rule="evenodd" clip-rule="evenodd" d="M17.3222 10.0115C16.9022 10.0115 16.5647 9.674 16.5647 9.254C16.5647 8.83475 16.9022 8.4965 17.3222 8.4965C17.743 8.4965 18.0805 8.83475 18.0805 9.254C18.0805 9.674 17.743 10.0115 17.3222 10.0115ZM16.0922 6.164C15.9647 6.55475 15.5372 6.77225 15.148 6.644C15.1322 6.6365 13.6547 6.164 11.3222 6.164C9.26799 6.164 7.58799 6.884 7.56474 6.8915C7.47474 6.92975 7.36974 6.9515 7.27299 6.9515C6.97974 6.9515 6.70299 6.779 6.58299 6.49475C6.41724 6.11975 6.58974 5.6765 6.97224 5.5115C7.04799 5.474 8.94474 4.664 11.3222 4.664C13.9097 4.664 15.5455 5.1965 15.613 5.219C16.0097 5.3465 16.2197 5.77475 16.0922 6.164ZM22.8797 8.4815H21.6572C21.2297 7.61151 20.6297 6.8315 19.9255 6.1415L22.333 3.73401C22.4747 3.59151 22.5572 3.38901 22.5505 3.17976C22.5422 2.97651 22.453 2.77476 22.2955 2.63901C19.3172 0.0365058 15.2447 2.60151 14.1647 3.36726C10.9097 2.88651 8.39048 3.50901 8.27723 3.53901C5.16473 4.34151 2.77298 6.17976 1.61798 8.4815C1.75973 8.159 1.67048 7.769 1.36973 7.5665C1.02548 7.33475 0.559731 7.4165 0.327981 7.7615C0.0879812 8.1065 -0.0252688 8.5115 0.00473116 8.909C0.0422312 9.359 0.259731 9.749 0.612981 9.989C0.740481 10.079 0.874731 10.139 1.01798 10.1765C0.920481 10.6415 0.867981 11.1215 0.867981 11.609C0.867981 14.489 2.64548 17.099 5.65973 18.6823V20.6315C5.65973 21.254 6.16223 21.7565 6.78473 21.7565H9.40223C10.018 21.7565 10.5205 21.254 10.5205 20.6315V20.0548C11.4122 20.129 12.3355 20.1065 13.2055 20.009V20.6173C13.2055 21.239 13.7147 21.7423 14.3305 21.7423H16.9472C17.5622 21.7423 18.0647 21.239 18.0647 20.6173V18.419C19.6322 17.504 20.863 16.2515 21.5972 14.8348H22.8797C23.4947 14.8348 24.0047 14.3315 24.0047 13.7098V9.6065C24.0047 8.984 23.4947 8.4815 22.8797 8.4815Z" fill="black"/>
</svg>

<svg xmlns="http://www.w3.org/2000/svg" width="25" height="24" fill="none" viewBox="0 0 25 24"><path fill="currentColor" fill-rule="evenodd" d="M17.322 10.012a.755.755 0 0 1-.757-.758.757.757 0 1 1 .757.758m-1.23-3.848a.75.75 0 0 1-.944.48c-.016-.008-1.493-.48-3.826-.48-2.054 0-3.734.72-3.757.728a.75.75 0 0 1-.982-.397.745.745 0 0 1 .39-.984c.075-.037 1.972-.847 4.35-.847 2.587 0 4.223.533 4.29.555a.75.75 0 0 1 .48.945m6.788 2.318h-1.223c-.427-.87-1.027-1.65-1.732-2.34l2.408-2.408a.76.76 0 0 0 .218-.554.76.76 0 0 0-.255-.541c-2.979-2.602-7.051-.037-8.131.728-3.255-.48-5.775.142-5.888.172-3.112.803-5.504 2.64-6.659 4.943a.74.74 0 0 0-.248-.915.747.747 0 0 0-1.042.194A1.78 1.78 0 0 0 .005 8.91c.037.45.255.84.608 1.08q.19.133.405.188-.149.699-.15 1.432c0 2.88 1.777 5.49 4.792 7.073v1.95c0 .622.502 1.124 1.125 1.124h2.617c.616 0 1.119-.502 1.119-1.125v-.576c.891.074 1.814.052 2.685-.046v.608c0 .622.509 1.125 1.125 1.125h2.616c.615 0 1.118-.503 1.118-1.125V18.42c1.567-.915 2.798-2.168 3.532-3.584h1.283a1.13 1.13 0 0 0 1.125-1.125V9.607c0-.623-.51-1.125-1.125-1.125" clip-rule="evenodd"/></svg>
